X:379
T: ES STAK SIK EIN WUERMCHEN WEL UNTER DE EER
N: E1565
O: Europa, Mitteleuropa, Deutschland, Westfalen, Soest
R: Staende -, Bauern - Lied, Flachsbrechen, bei der Arbeit
M: 3/8
L: 1/8
K: C
C | CCE | GGF | EEF | G2z |
CEC | F2EGDD | CCEC | F2EGDD | C2z

@@@ Tune index: 5063
